!!!!SEGMENT: pl-kk--kk-i-10--007_pekiel-bartlomiej--o-adoranda-trinitas.krn
!!!cenid: 16xx:1194
!!!COM: Pękiel, Bartłomiej
!!!COM-rismid: pe30105642
!!!CDT: <1633-~1670
!!!CNT: Polish
!!!OTL: O adoranda trinitas
!!!PDT:
!!!AGN: Sacred
!!!SMS-siglum: PL-Kk
!!!SMS-shelfmark: Kk.I.10
!!!SMS-shelfwork: 007 W
!!!SMS-variant:
!!!SMS-altvar:
!!!NIFC-rismid: 1001153814
!!!URL-scan: http://repozytorium.nifc.pl/skany/pl-kk-nut--i-10
!!!ONB-nifc: UWAGA: T1 (skan 0014-0015), T2 (0064), B (0113-0114). Następny utwór: Kyrie
!!!key:
**kern	**text	**kern	**text	**kern	**text
*part4	*part4	*part3	*part3	*part2	*part2
*staff4	*staff4	*staff3	*staff3	*staff2	*staff2
*Ibass	*	*Itenor	*	*Ialto	*
*I"[Bassus]	*	*I"[Tenor]	*	*I"[Altus]	*
*I'B	*	*I'T	*	*I'A	*
*clefF4	*	*clefC4	*	*clefC4	*
*k[b-]	*	*k[b-]	*	*k[b-]	*
*g:dor	*	*g:dor	*	*g:dor	*
*M2/2	*	*M2/2	*	*M2/2	*
*met(C|)	*	*met(C|)	*	*met(C|)	*
*	*	*	*	*lig	*
00r	.	1r	.	1G/	.
*	*	*	*	*col	*
.	.	(>1D/	.	2.d\	.
*	*	*	*	*Xlig	*
.	.	.	.	4c\	.
*	*	*	*	*Xcol	*
=1-	=1-	=1-	=1-	=1-	=1-
.	.	1A\)	.	(4B-\	A-
.	.	.	.	4A\)	.
.	.	.	.	(4B-\	-do-
.	.	.	.	4G\)	.
*	*	*	*	*2\right	*
!	!	!	!	!	!
.	.	2F/	A-	2A\	-ran-
.	.	2D/	-do-	2F/	-da
=2-	=2-	=2-	=2-	=2-	=2-
0r	.	2E/	-ran-	2.G/	Tri-
.	.	2G/	-da	.	.
.	.	.	.	4G/	-ni-
.	.	4F#X/	A-	0D/	-taſ
.	.	4D/	-do-	.	.
.	.	4.B-\	-ran-	.	.
.	.	8B-\	-da	.	.
=3-	=3-	=3-	=3-	=3-	=3-
*lig	*	*	*	*	*
1D\	.	2.A/	Tri-	.	.
.	.	4A/	-ni-	.	.
*	*	*2\right	*	*	*
!	!	!	!	!	!
1G\	.	2B-,<\	-taſ	2r	.
*	*	*	*ij	*	*
.	.	2B-\	Tri-	1G/	O
*Xlig	*	*	*	*	*
=4-	=4-	=4-	=4-	=4-	=4-
*2\right	*	*	*	*	*
2G\	A-	2B-\	-ni-	.	.
*	*	*custos:G	*	*	*
2F\	-do-	2A/	.	1d\	A-
!	!	!LO:LB:g=original	!	!	!
1E-X\	-ran-	2G/	.	.	.
.	.	2G,</	-tas	2c\	-do-
*	*	*	*Xij	*	*
=5-	=5-	=5-	=5-	=5-	=5-
2D/	-da	4A/	A-	4d\	-ran-
.	.	4Fny/	-do-	4A\	-da
2C/	.	1G/	-ran-	4.c\	A-
.	.	.	.	8c\	-do-
!	!	!	!	!LO:LB:g=original	!
!	!	!	!	!LO:N:acc=#	!
1.GG/	Tri-	.	.	2Bn\	-ran-
.	.	2G/	-da	2e-X\	-da
=6-	=6-	=6-	=6-	=6-	=6-
.	.	2.G/	Tri-	2.d\	Tri-
2GG/	-ni-	.	.	.	.
.	.	4G/	-ni-	4d\	-ni-
2C/	-taſ	2G/	-taſ	4e-X,<\	-taſ
.	.	.	.	4c\	o
2r	.	2r	.	4G/	ve-
.	.	.	.	4A/	-ne-
=7-	=7-	=7-	=7-	=7-	=7-
0r	.	2r	.	4B-y\	-ran-
.	.	.	.	4c\	.
.	.	2f\	O	2d\	.
.	.	4c\	ve-	4A/	.
.	.	4d\	-ne-	4B-\	.
.	.	4e\	-ran-	4c\	.
.	.	8d\L	.	8B-\L	.
.	.	8c\J	.	8A\J	.
=8-	=8-	=8-	=8-	=8-	=8-
*lig	*	*	*	*	*
1GG/	O	4.d\	.	2B-\	.
.	.	8c\	.	.	.
.	.	2B-\	.	2B-\	-da
1D\	.	2A/	-da	4F/	O
.	.	.	.	4G/	.
.	.	2r	.	4A/	.
.	.	.	.	4B-/	.
*Xlig	*	*	*	*	*
=9-	=9-	=9-	=9-	=9-	=9-
*	*	*lig	*	*	*
1C/	ve-	1G/	O	4c\	ve-
.	.	.	.	8B-\L	.
.	.	.	.	8A\J	.
.	.	.	.	4G/	.
*	*	*	*	*custos:B	*
.	.	.	.	4A/	-ne-
!	!	!	!	!LO:LB:g=original	!
1BB-/	-ne-	1d\	.	4B-\	-ran-
.	.	.	.	4F/	-da
.	.	.	.	4.G/	ve-
.	.	.	.	8G/	-ne-
*	*	*Xlig	*	*	*
=10-	=10-	=10-	=10-	=10-	=10-
*custos:GG	*	*	*	*	*
1AA/	-ran-	1c\	ve-	2.A/	-ran-
.	.	.	.	4A/	-da
!LO:LB:g=original	!	!	!	!	!
1GG/	-da	1B-\	-ne-	4B-\	ve-
.	.	.	.	4A/	-ne-
.	.	.	.	1G/	-ran-
!	!	!LO:LB:g=original	!	!	!
=11-	=11-	=11-	=11-	=11-	=11-
1.AA/	V-	2.A/	-ran-	.	.
.	.	.	.	2F/	-da
.	.	4A/	-da	.	.
.	.	2.A/	V-	2.E/	v-
2AA/	-ni-	.	.	.	.
.	.	4A/	-ni-	4E/	-ni-
=12-	=12-	=12-	=12-	=12-	=12-
2D/	-taſ	2A,</	-taſ	2F#X/	-taſ
1D\	per	1A\	per	1F#/	per
2D/	te	2A/	te	2F#/	te
=13-	=13-	=13-	=13-	=13-	=13-
1G\	su-	1B-\	su-	1G/	su-
2G\	-muſ	2B-\	-muſ	2G/	-muſ
2F#X\	cre-	2d\	Cre-	4A/	cre-
.	.	.	.	2A/	-a-
=14-	=14-	=14-	=14-	=14-	=14-
1G\	-a-	1B-\	-a-	.	.
.	.	.	.	8G/L	.
.	.	.	.	8Fny/J	.
.	.	.	.	2G/	.
2D/	-ti	2A,</	-ti	1F#X/	-ti
2D/	sum-	1d\	sum-	.	.
=15-	=15-	=15-	=15-	=15-	=15-
2.Eny\	-ma-	.	.	1r	.
.	.	1c\	-ma	.	.
4F#X\	-ta	.	.	.	.
*	*	*	*	*custos:d	*
4G\	.	.	.	2r	.
4D/	cha-	.	.	.	.
!	!	!	!	!LO:LB:g=original	!
1G\	.	2B-\	tu	1d\	per
=16-	=16-	=16-	=16-	=16-	=16-
.	.	2.A/	bo-	.	.
2F#X\	-ri-	.	.	2d\	te
.	.	4A/	-ni-	.	.
2G,<\	-taſ	2G,</	-taſ	4d\	per
.	.	.	.	4c\	.
1G\	per	1G/	per	4B-\	.
.	.	.	.	4A/	te
=17-	=17-	=17-	=17-	=17-	=17-
.	.	.	.	2B-\	su-
*custos:E	*	*	*	*	*
2G\	te	2B-\	te	2G/	-muſ
!LO:LB:g=original	!	!	!	!	!
1E-\	su-	1B-\	su-	1G/	re-
=18-	=18-	=18-	=18-	=18-	=18-
*	*	*custos:d	*	*	*
2C/	-muſ	2c\	-muſ	0G/	-dem-
!LO:N:acc=#	!	!LO:LB:g=original	!	!	!
2BBn/	re-	2d\	re-	.	.
!	!	!LO:TX:t=P:problem=powinny być ćwierćnuty	!	!	!
!	!	!LO:N:vis=8	!	!	!
1C/	-dem-	4c\L	-dem-	.	.
!	!	!LO:N:vis=8	!	!	!
.	.	4B-\J	.	.	.
.	.	2c\	-pti	.	.
=19-	=19-	=19-	=19-	=19-	=19-
2GG/	-pti	2B-\	.	1G/	-pti
1G\	sum-	1B-\	sum-	.	.
.	.	.	.	1.d\	sum-
4Fny\	.	4A/	.	.	.
4Eny\	.	4G/	.	.	.
=20-	=20-	=20-	=20-	=20-	=20-
1F\	.	1A\	.	.	.
.	.	.	.	4c\	.
.	.	.	.	4B-\	.
2F\	-ma-	2A/	-ma	1.c\	.
2E-X\	-ta	2G/	tu	.	.
=21-	=21-	=21-	=21-	=21-	=21-
1.D\	cha-	2F#X/	cha-	.	.
.	.	1G/	.	4B-\	-ma-
.	.	.	.	4B-\	-ta
.	.	.	.	2.A/	cha-
2D/	-ri-	2F#/	-ri-	.	.
.	.	.	.	4A/	-ri-
=22-	=22-	=22-	=22-	=22-	=22-
!	!	!	!	!LO:TX:t=P:problem=# below	!
!	!	!	!	!LO:N:acc=#	!
1GG/	-taſ	1G/	-taſ	1Bn\	-taſ
=23-	=23-	=23-	=23-	=23-	=23-
*M3/1	*	*M3/1	*	*M3/1	*
1.G\	Po-	1.G/	Po-	1.B-y\	Po-
2G\	-pu-	2G/	-pu-	2B-\	-pu-
1F#X\	-lum	1A\	-lum	1A\	-lum
!	!	!	!	!LO:LB:g=original	!
=24-	=24-	=24-	=24-	=24-	=24-
0G\	tu-	0B-\	tu-	0G/	tu-
*custos:E	*	*	*	*	*
1G\	-um	1B-\,<	-um	1G/	-um
!LO:LB:g=original	!	!	!	!	!
=25-	=25-	=25-	=25-	=25-	=25-
1E-X\	tu	1B-\	tu	1G/	tu
1.Fny\	pro-	1.B-\	pro-	1.Fny/	pro-
2F\	-te-	2A/	-te-	2F/	-te-
=26-	=26-	=26-	=26-	=26-	=26-
0.BB-/	-ge	0.B-\	-ge	0.F/	-ge
=27-	=27-	=27-	=27-	=27-	=27-
0B-\	sal-	0d\	sal-	1r	.
.	.	.	.	1B-\	sal-
1G\	-ua	1d\	-ua	1B-\	-ua
=28-	=28-	=28-	=28-	=28-	=28-
1.A\	li-	1.c#X\	e-	1.A\	li-
2A\	-be-	2c#\	-ri-	2A/	-be-
1A\	-ra	1c#\	-pe	1A\	-ra
=29-	=29-	=29-	=29-	=29-	=29-
2D\	et	0d\	et	0.A\	et
2Eny\	.	.	.	.	.
2F\	.	.	.	.	.
2G\	.	.	.	.	.
!	!	!LO:TX:t=P:problem=# above	!	!	!
1A\	.	1c#X\	e-	.	.
=30-	=30-	=30-	=30-	=30-	=30-
1F\	e-	0d\	-mun-	1A\	e-
*lig	*	*	*	*lig	*
1G\	-mun-	.	.	1B-\	-mun-
1A\	.	1c#X\	.	1A\	.
*Xlig	*	*	*	*Xlig	*
=31-	=31-	=31-	=31-	=31-	=31-
*custos:G	*	*	*	*	*
0.D\	-da	0.d\	-da	0.A\	-da
!LO:PB:g=original	!	!	!	!	!
=32-	=32-	=32-	=32-	=32-	=32-
*M4/4	*	*M4/4	*	*M4/4	*
*met(C)	*	*met(C)	*	*met(C)	*
1r	.	4r	.	1r	.
.	.	4d\	Te	.	.
.	.	4cny\	A-	.	.
.	.	4A\	-do-	.	.
4r	.	2B-\	-ra-	4r	.
4G\	Te	.	.	4G/	Te
4F\	A-	4A\	-muſ	4A/	A-
4D\	-do-	4Fny/	o-	4B-\	-do-
!	!	!	!	!LO:LB:g=original	!
=33-	=33-	=33-	=33-	=33-	=33-
2C/	-ra-	1.G/	-mni-	2c\	-ra-
4C/	-muſ	.	.	4c\	-muſ
4BB-/	o-	.	.	4d\	o-
2.AA/	-mi-	.	.	2.A/	-mni-
.	.	2F/	-po-	.	.
4AA/	-po-	.	.	4A/	-po-
!	!	!LO:LB:g=original	!	!	!
=34-	=34-	=34-	=34-	=34-	=34-
4GG/	-tenſ	4G/	-tenſ	2d\	-tenſ
2G\	Ti-	2G/	ti-	.	.
.	.	.	.	4B-\	ti-
4E-X\	-bi	4G/	-bi	4c\	-bi
2.F\	ca-	2.F/	ca-	4A/	ca-
.	.	.	.	2B-\	-ni-
4F\	-ni-	4F/	-ri-	4A/	.
=35-	=35-	=35-	=35-	=35-	=35-
2BB-/	-mus	2F/	-muſ	2B-\	-muſ
2r	.	2.d\	Ti-	2.B-\	Ti-
0r	.	.	.	.	.
.	.	4B-\	-bi	4G/	-bi
.	.	2e-X,<\	Laus	2c\	Lauſ
=36-	=36-	=36-	=36-	=36-	=36-
.	.	4e-\	ti-	4c\	ti-
.	.	4d\	-bi	4B-\	-bi
.	.	4.c\	glo-	4.A/	Glo-
.	.	8c\	-ri-	8A/	-ri-
4r	.	4B-,<\	-a	4G,</	-a
*	*	*	*ij	*	*
2G\	Ti-	2d\	Ti-	2B-\	Ti-
4E-X\	-bi	4e-X\	-bi	4B-\	-bi
=37-	=37-	=37-	=37-	=37-	=37-
*	*	*	*	*custos:B	*
2B-\	Laus	2d\	Laus	2B-\	Lauſ
!	!	!	!	!LO:PB:g=original	!
4BB-/	ti-	4d\	ti-	4B-\	ti-
*custos:GG	*	*	*	*	*
4C/	-bi	4c\	-bi	4G/	-bi
!	!	!LO:TX:t=P:problem=# above	!	!	!
!LO:LB:g=original	!	!LO:N:acc=#	!	!	!
2.GG/	glo-	4Bn\	glo-	2.G/	Glo-
.	.	2c\	.	.	.
4GG/	-ri-	4B\	-ri-	4G/	-ri-
=38-	=38-	=38-	=38-	=38-	=38-
2C/	-a	2c\	-a	2G/	-a
*	*	*	*	*	*ij
2r	.	4eny\	ti-	4c\	ti-
*	*	*custos:e	*	*	*
.	.	4f\	-bi	4A/	-bi
!	!	!LO:LB:g=original	!	!	!
00r	.	2e\	Laus	2c\	Glo-
.	.	4e\	ti-	4c\	.
.	.	4d\	-bi	4d\	.
=39-	=39-	=39-	=39-	=39-	=39-
!	!	!LO:TX:t=P:problem=# above	!	!	!
.	.	4c#X\	Glo-	2.A/	.
.	.	2d\	.	.	.
.	.	4c#\	-ri-	4A/	-ri-
.	.	4d\	-a	4D,</	-a
*	*	*	*Xij	*	*Xij
.	.	4d\	per	4D/	per
.	.	4B-ny\	in-	4G/	in-
.	.	4F#X/	-fi-	4A/	-fi-
=40-	=40-	=40-	=40-	=40-	=40-
.	.	4G/	-ni-	4B-\	-ni-
.	.	4A/	-ta	4F#X/	-ta
.	.	4.B-\	sae-	4.G/	sae-
.	.	8B-\	-cu-	8G/	-cu-
4r	.	2.A,</	-la	2D/	-la
4A\	per	.	.	.	.
4F\	in-	.	.	2r	.
4C#X/	-fi-	4A/	per	.	.
=41-	=41-	=41-	=41-	=41-	=41-
4D\	-ni-	4A/	in-	1r	.
4Eny\	-ta	4G/	-fi-	.	.
!LO:TX:t=P:problem=# above	!	!	!	!	!
8F#X\L	sae-	4A/	-ni-	.	.
8D\J	.	.	.	.	.
2G\	.	4B-\	-ta	.	.
.	.	4.A/	sae-	4r	.
*	*	*	*	*custos:B	*
4F#\	-cu-	.	.	4d\	per
.	.	8A/	-cu-	.	.
!	!	!	!	!LO:LB:g=original	!
4G\	-la	4G,</	-la	4B-\	in-
*	*ij	*	*ij	*	*
4D/	sae-	4A/	per	4F#X/	-fi-
=42-	=42-	=42-	=42-	=42-	=42-
4BB-/	.	4B-\	in-	4G/	-ni-
*	*	*custos:B	*	*	*
4FF#X/	.	4d\	-fi-	4A/	-ta
!	!	!LO:LB:g=original	!	!	!
4.GG/	.	8B-\L	-ni-	4.B-\	sae-
.	.	8A\J	.	.	.
.	.	4G/	.	.	.
8GG/	-cu-	.	.	8B-\	-cu-
2.D/	-la	1A\	.	2d,<\	-la
*	*Xij	*	*	*	*
.	.	.	.	4.eny\	sae-
4Cny/	In-	.	.	.	.
.	.	.	.	8e\	-cu-
=43-	=43-	=43-	=43-	=43-	=43-
4.BB-/	-fi-	2d\	.	4d,<\	-la
.	.	.	.	4D/	per
8AA/	.	.	.	.	.
!LO:LB:g=original	!	!	!	!	!
4GG/	-[ni]-	4B-\	-ta	4G/	in-
4D/	-ta	4F#X/	sae-	4A/	-fi-
2.GG/	sae-	4G/	.	4B-\	-ni-
.	.	4A\	.	4A/	-ta
.	.	4.B-\	.	4.G/	sae-
4GG/	-cu-	.	.	.	.
.	.	8B-\	-cu-	8G/	-cu-
=44-	=44-	=44-	=44-	=44-	=44-
0D\;<	-la	0A\;<	-la	0F#X/;	-la
==	==	==	==	==	==
*-	*-	*-	*-	*-	*-
!!!system-decoration: [(s1,s2,s3,s4)]
!!!RDF**kern: > = above
!!!RDF**kern: < = below
!!!EED: Andrzej Borzym
!!!EST: 2021-07-07
!!!AIN: 1 alto 1 bass 1 tenor
!!!ENC: Mateusz Solarz
!!!END: 2021-06-24
